X: 1
T:For Ireland, I'd Not Tell Her Name
T:Ar Eireann Ne Neosin Ce Hi
M:3/4
L:1/8
Q:70
S:Ir-Trad 3/97; PTK3509@AOL.COM
R:Air
K:G
G>A|B D3 D2|E G3 A2|B4 (3A/2B/2A/2 G|{c}B D3 DD|E G3 BG|A3 B/2A/2 G>A|
BG D2 D2|E c4 d/2c/2BA|{Bd}B3 G AG|E2 D2 CD|E G2 F AF|G4||
B>c|d2 {Bd}B2 AF|G2 B2 d2|e4 g>e|d2 B3 {cB}A|G3 A BG|A4 G>A|
BG D2 D2|E G3 Ac|B3 G AG|E2 {DF}D2 CD|E G2 F AF|G4||
(3FGA|B D3 FD|E G3 A2|{Bd}B3 G BA|B D3 (3DFD|E G3 BG|A4 (3GGA|
B D3 (3AGF|E c3 Ac|B3 c AG|E2 D2 CD|E G2 F (3AGF|G4||
Bc|d2 B2 (3cBA|G2 B2 d2|{eg}e4 (3fgf|d2 B3 B|GD GB dG|
A4 (3cdc|BG D2 CD|E G3 (3ABc|B4 A/2B/2A/2G/2|E2 D2 (3B,CD|
E G2 F AF|G4||
